packages/components/Atoms/Icon/assets/img/rpl_icon_ics.svg

<svg width="20" height="20" viewBox="0 0 20 20" overflow="visible" xmlns="http://www.w3.org/2000/svg">
  <path d="M10 5H12.176L10 2.824V5ZM13 2.997L15 4.997V5V7V7.824V9H13V7H9C8.447 7 8 6.553 8 6V2H2V18H13V16H15V19C15 19.553 14.553 20 14 20H1C0.447 20 0 19.553 0 19V1C0 0.447 0.447 0 1 0H7.176H8H10H10.003L12.003 2L13 2.997ZM9.371 15.012V10.026H10.597V15.012H9.371ZM13.3337 15.0541C12.7517 15.0541 12.3107 14.8581 11.9467 14.4931C11.4217 13.9681 11.4417 13.2681 11.4417 12.5191C11.4417 11.7691 11.4217 11.0691 11.9467 10.5431C12.3107 10.1791 12.7517 9.9841 13.3337 9.9841C14.2787 9.9841 15.0427 10.5081 15.2247 11.6081H13.9777C13.8997 11.3281 13.7467 11.0751 13.3407 11.0751C13.1157 11.0751 12.9477 11.1671 12.8567 11.2861C12.7447 11.4331 12.6677 11.6081 12.6677 12.5191C12.6677 13.4291 12.7447 13.6041 12.8567 13.7511C12.9477 13.8701 13.1157 13.9611 13.3407 13.9611C13.7467 13.9611 13.8997 13.7091 13.9777 13.4291H15.2247C15.0427 14.5291 14.2787 15.0541 13.3337 15.0541ZM17.2887 15.0541C16.5247 15.0541 15.9007 14.9141 15.3967 14.3961L16.1817 13.6121C16.4407 13.8701 16.8957 13.9611 17.2957 13.9611C17.7787 13.9611 18.0097 13.8001 18.0097 13.5131C18.0097 13.3941 17.9817 13.2961 17.9117 13.2191C17.8487 13.1561 17.7437 13.1071 17.5827 13.0861L16.9797 13.0021C16.5387 12.9391 16.2027 12.7921 15.9777 12.5611C15.7477 12.3231 15.6357 11.9871 15.6357 11.5591C15.6357 10.6491 16.3217 9.9841 17.4567 9.9841C18.1707 9.9841 18.7097 10.1521 19.1377 10.5781L18.3667 11.3491C18.0517 11.0331 17.6387 11.0551 17.4217 11.0551C16.9937 11.0551 16.8187 11.3001 16.8187 11.5171C16.8187 11.5801 16.8407 11.6711 16.9167 11.7481C16.9797 11.8111 17.0857 11.8741 17.2607 11.8961L17.8627 11.9801C18.3107 12.0421 18.6337 12.1831 18.8437 12.3931C19.1087 12.6521 19.2147 13.0231 19.2147 13.4861C19.2147 14.5001 18.3387 15.0541 17.2887 15.0541Z"
    fill="inherit" />
</svg>

<svg width="20" height="20" overflow="visible" xmlns="http://www.w3.org/2000/svg"><path d="M10 5h2.176L10 2.824V5zm3-2.003l2 2V9h-2V7H9a1 1 0 01-1-1V2H2v16h11v-2h2v3a1 1 0 01-1 1H1a1 1 0 01-1-1V1a1 1 0 011-1h9.003l2 2 .997.997zM9.371 15.012v-4.986h1.226v4.986H9.371zm3.963.042c-.582 0-1.023-.196-1.387-.56-.525-.526-.505-1.226-.505-1.975 0-.75-.02-1.45.505-1.976.364-.364.805-.559 1.387-.559.945 0 1.709.524 1.89 1.624h-1.246c-.078-.28-.231-.533-.637-.533-.225 0-.393.092-.484.211-.112.147-.19.322-.19 1.233 0 .91.078 1.085.19 1.232.09.12.259.21.484.21.406 0 .559-.252.637-.532h1.247c-.182 1.1-.946 1.625-1.891 1.625zm3.955 0c-.764 0-1.388-.14-1.892-.658l.785-.784c.259.258.714.35 1.114.35.483 0 .714-.162.714-.449a.416.416 0 00-.098-.294c-.063-.063-.168-.112-.33-.133l-.602-.084c-.441-.063-.777-.21-1.002-.44-.23-.239-.342-.575-.342-1.003 0-.91.686-1.575 1.82-1.575.715 0 1.254.168 1.682.594l-.771.771c-.315-.316-.728-.294-.945-.294-.428 0-.603.245-.603.462 0 .063.022.154.098.231a.57.57 0 00.344.148l.602.084c.448.062.77.203.98.413.266.26.372.63.372 1.093 0 1.014-.876 1.568-1.926 1.568z" fill="inherit"/></svg>
